X: 1
T: Miller's Maid, The
M: 4/4
L: 1/8
R: reel
K: Dmaj
|:B|A2 FA BcdB|A2 FA BEEB|A2 FA Beec|dABG &quot;Fine&quot; FEE:|
c|dAFA dfaf|gfed cdec|dAFA BABc|dABG FDDc|
dAFA dfaf|gfed cd e2|defg abaf|gbag &quot;D.C' al Fine&quot; fdd|]
